X:1
T: Miss Gordon of Gight
C:I. Cooper
R:Reel
Q: 232
K:Cm
M:4/4
L:1/8
|:G,C EG ce ec|Bd BG FD B,D|CE GE DF BG|FD B,D C1/2C1/2C C2|
G,C EG ce ec|Bd BG FD B,D|CE GE DF BG|FD B,D C1/2C1/2C C2|
eg bg ag fe|de fg fd Bf|eg bg ag fe|dB fd c1/2c1/2c c2|
eg bg ag fe|de fg fd Bf|gf ed cd ec|BG FD EC C2:|
